X: 19109
T: Irish Marche, The
R: jig
M: 6/8
K: Gmajor
B2G c2A|B2d A3|B2d c2e|B2d A3|
B>AB c3|B>AG A3|B>AB e>de|B>AG A2D|
G>AB c>GA|B>cd A2D|G>AB c>GA|B>cd A3|
GBG ege|GBG FAF|GBG cec|GBG d>AD|
G>AB c>de|d>ef/g/ Tf2d|G>AB c>de|d>ef/g/ Tf2d|
zGd ce2|zdg fa2|g2d e2c|d2G A2F|
G>AB c>dc|BAG AAD|GG/F/G Eec|BGg fd2|
B>cd ec2|d>ag fd2|d>gd ec2|G>AG FD2|
GA/G/A/B/ c/d/ed/c/|B/A/B/c/d/e/ f/g/ag/f/|
gf/e/d e=f/e/d/c/|Bc/B/A/G/ F/E/F/G/A/F/|
G/A/B/c/d/B/ c/d/e/f/g|G/A/B/c/d/e/ f>ga/f/|g3-g3-|
g3 Tf3|g>dB/d/ c/B/c/d/c|da/g/f/e/ d/^c/d/e/d|
gB/c/d Te>dc|Bc/B/A/G/ F>ED|E>FG TF>EF|G3-G3||

